svg/spray_bottle.svg

<svg xmlns="http://www.w3.org/2000/svg" viewBox="0 0 24 24"><path d="M12 7h3c.66.64 1 1.31 1 2v13H8v-7c0-.28.11-.61.3-1zm4-3-1 2h-3V5l-2 2H9l1-2V4H9V2h5.5A1.5 1.5 0 0 1 16 3.5z"/></svg>

<?xml version="1.0" encoding="UTF-8"?><!DOCTYPE svg PUBLIC "-//W3C//DTD SVG 1.1//EN" "http://www.w3.org/Graphics/SVG/1.1/DTD/svg11.dtd"><svg xmlns="http://www.w3.org/2000/svg" xmlns:xlink="http://www.w3.org/1999/xlink" version="1.1" id="mdi-spray-bottle" width="24" height="24" viewBox="0 0 24 24"><path d="M12,7H15C15.66,7.64 16,8.31 16,9V22H8V15C8,14.72 8.11,14.39 8.3,14L12,7M16,4L15,6H12V5L10,7H9L10,5V4H9V2H14.5A1.5,1.5 0 0,1 16,3.5V4Z" /></svg>
